X: 87
T:Killie Crankie
M:4/4
L:1/8
Q:120
S:Playford
K:C
C2| G3 A G2 E2| G3 A G2 E2 |D2 C2 CDEF | G4 G2 G2| A3 c A2 G| A3 c A2 G2 | A2 cB A2 G2| A4 A2 cd| e2 g2 d2 e2 |c3 d e2 c2| G3 A c2 E2| G4 G2 G2| A3 A c2 c2 | d3 d e3 e|dcBA GAcE |D4 C2 C2:|

